X:3
T:The Fox (III)
I:Songs Of The West, S Baring Gould
M:2/4
L:1/16
K:D
D2|F2 F2 F2 E D|F2 A2 d2 E E|E2 E E E2 D2|
C C E2 A2 G G|F2 E D F2 E D|F2 A2 d2 d2|
d2 D2 D2 F2|E4D4|G4F4|B4A2 B c|d2 D2 D2 E F|E4D4
